X:1
T:Humours Of Ballyrakesh
R:jig
C:Jean-Francois Perroy
S:MP3 file
D:Open Road, "Peregrinations"
Z:Jeff Lindqvist <jeff_lindqvist@SPRAY.SE> irtrad-l 2001-2-09
N:Posted to irtrad-l at Jean-Francois' request.
M:6/8
L:1/8
K:Dm
aef f/g/fe | def eeA | fed eeA | fed ^cBA |
a2f f/g/fe | def eeA | fed eeA | BA^G A2A :|
|: AB^c B/c/BA | AB^c B/c/BA | fed eAA | BAG ^F_ED |
AB^c B/c/BA | AB^c B/c/BA | fed eAA |1 BA^G AAA :|2 BA^G A2A ||
"The 2nd time through"
a2f f/g/fe | def eeA | fed eeA | fed ^cBA |
aff f/g/fe | def eeA |1 fed fed | ee^c d2e :|2 fed eeA | BA^G A2A ||
|: AB^c B/c/BA | AB^c B/c/BA | fed eAA | BAG ^F_ED |
AB^c B/c/BA | AB^c B/c/BA |1 fed eAA | BA^G AAA :|2 aaa aaa | ae^c d3 |]
